svg/24/folder-back.svg

<svg width="24" height="24" viewBox="0 0 24 24" fill="currentColor" xmlns="http://www.w3.org/2000/svg"><path d="M11.7803 10.7803C12.0732 10.4874 12.0732 10.0126 11.7803 9.71967C11.4874 9.42678 11.0126 9.42678 10.7197 9.71967L8.21967 12.2197C7.92678 12.5126 7.92678 12.9874 8.21967 13.2803L10.7197 15.7803C11.0126 16.0732 11.4874 16.0732 11.7803 15.7803C12.0732 15.4874 12.0732 15.0126 11.7803 14.7197L10.5607 13.5H15.25C15.6642 13.5 16 13.1642 16 12.75C16 12.3358 15.6642 12 15.25 12H10.5607L11.7803 10.7803Z"/><path fill-rule="evenodd" clip-rule="evenodd" d="M2 5C2 3.89543 2.89543 3 4 3H8.17157C8.70201 3 9.21071 3.21071 9.58579 3.58579L11.7071 5.70711C11.8946 5.89464 12.149 6 12.4142 6H20C21.1046 6 22 6.89543 22 8V18C22 19.1046 21.1046 20 20 20H4C2.89543 20 2 19.1046 2 18V5ZM20.5 8V18C20.5 18.2762 20.2761 18.5 20 18.5H4C3.72386 18.5 3.5 18.2762 3.5 18V5C3.5 4.72386 3.72386 4.5 4 4.5H8.17157C8.30418 4.5 8.43136 4.55268 8.52513 4.64645L10.6464 6.76777C11.1153 7.23661 11.7512 7.5 12.4142 7.5H20C20.2761 7.5 20.5 7.72386 20.5 8Z"/></svg>

<svg xmlns="http://www.w3.org/2000/svg" width="24" height="24" fill="currentColor" viewBox="0 0 24 24">
  <path d="M11.78 10.78a.75.75 0 1 0-1.06-1.06l-2.5 2.5a.75.75 0 0 0 0 1.06l2.5 2.5a.75.75 0 1 0 1.06-1.06l-1.22-1.22h4.69a.75.75 0 0 0 0-1.5h-4.69l1.22-1.22Z"/>
  <path fill-rule="evenodd" d="M2 5a2 2 0 0 1 2-2h4.172a2 2 0 0 1 1.414.586l2.121 2.121a1 1 0 0 0 .707.293H20a2 2 0 0 1 2 2v10a2 2 0 0 1-2 2H4a2 2 0 0 1-2-2V5Zm18.5 3v10a.5.5 0 0 1-.5.5H4a.5.5 0 0 1-.5-.5V5a.5.5 0 0 1 .5-.5h4.172a.5.5 0 0 1 .353.146l2.121 2.122a2.5 2.5 0 0 0 1.768.732H20a.5.5 0 0 1 .5.5Z" clip-rule="evenodd"/>
</svg>
